images/icons/tiles.svg

<svg height="32pt" viewBox="0 0 32 32" width="32pt" xmlns="http://www.w3.org/2000/svg"><g fill="#fff"><path d="m2 30.5h28c.277344 0 .5-.222656.5-.5v-14c0-.277344-.222656-.5-.5-.5h-13.5v-13.5c0-.277344-.222656-.5-.5-.5h-14c-.277344 0-.5.222656-.5.5v28c0 .277344.222656.5.5.5zm13.5-9.027344c-2.640625-.242187-4.730469-2.332031-4.972656-4.972656h4.972656zm0 1.007813v1.503906c-4.023438-.257813-7.226562-3.460937-7.484375-7.484375h1.503906c.25 3.195312 2.785157 5.730469 5.980469 5.980469zm1-5.980469h4.972656c-.242187 2.640625-2.332031 4.730469-4.972656 4.972656zm-5.972656-1c.242187-2.640625 2.332031-4.730469 4.972656-4.972656v4.972656zm4.972656-5.980469c-3.195312.25-5.730469 2.785157-5.980469 5.980469h-1.503906c.257813-4.023438 3.460937-7.226562 7.484375-7.484375zm-8.472656 6.980469c.257812 4.570312 3.902344 8.214844 8.472656 8.472656v4.527344h-6.027344c-.253906-3.742188-3.230468-6.71875-6.972656-6.972656v-6.027344zm-4.527344 9.03125c2.085938.234375 3.734375 1.882812 3.96875 3.96875h-3.96875zm4.976562 3.96875c-.242187-2.640625-2.335937-4.734375-4.976562-4.976562v-1.003907c3.195312.25 5.730469 2.785157 5.980469 5.980469zm16.042969 0c.25-3.195312 2.785157-5.730469 5.980469-5.980469v1.003907c-2.640625.242187-4.734375 2.335937-4.976562 4.976562zm2.011719 0c.234375-2.085938 1.882812-3.734375 3.96875-3.96875v3.96875zm3.96875-6.972656c-3.742188.253906-6.71875 3.230468-6.972656 6.972656h-6.027344v-4.527344c4.570312-.257812 8.214844-3.902344 8.472656-8.472656h4.527344zm-5.515625-6.027344c-.257813 4.023438-3.460937 7.226562-7.484375 7.484375v-1.503906c3.195312-.25 5.730469-2.785157 5.980469-5.980469zm-8.484375-9.472656c-4.570312.257812-8.214844 3.902344-8.472656 8.472656h-4.527344v-6.027344c3.742188-.253906 6.71875-3.230468 6.972656-6.972656h6.027344zm-7.019531-4.527344c-.25 3.195312-2.785157 5.730469-5.980469 5.980469v-1.003907c2.640625-.242187 4.734375-2.335937 4.976562-4.976562zm-2.011719 0c-.234375 2.085938-1.882812 3.734375-3.96875 3.96875v-3.96875zm0 0"/><path d="m17.800781 9.71875.453125.90625c.054688.109375.113282.214844.175782.320312l-.90625 2.90625c-.082032.261719.0625.542969.328124.625.046876.015626.097657.023438.148438.023438s.101562-.007812.148438-.023438l2.855468-.890624 1.699219 1.019531c.433594.257812.925781.394531 1.425781.394531h1.613282c1.53125 0 2.773437-1.242188 2.773437-2.773438 0-.351562-.066406-.703124-.199219-1.03125l-.277344-.695312c.539063-1.371094.503907-2.902344-.101562-4.246094l2.910156-2.90625c.195313-.195312.195313-.511718 0-.707031l-1.496094-1.492187c-.191406-.195313-.511718-.195313-.703124 0l-2.765626 2.761718c-.605468-.386718-1.28125-.648437-1.988281-.769531l-.410156-.066406c-.292969-.050781-.59375-.074219-.890625-.074219h-.660156c-2.566406.011719-4.636719 2.101562-4.621094 4.667969.003906.710937.167969 1.414062.488281 2.050781zm2.429688-1.175781c.339843-1.074219 1.335937-1.804688 2.460937-1.808594.082032 0 .167969.003906.253906.011719.421876.042968.824219.191406 1.171876.429687l-.96875.972657.703124.703124.972657-.96875c.238281.347657.386719.75.429687 1.171876.117188 1.214843-.632812 2.347656-1.796875 2.714843l-4.695312 1.46875zm6.878906 1.589843-.074219.183594c-.046875.117188-.046875.25 0 .371094l.351563.878906c.367187.910156-.074219 1.941406-.984375 2.304688-.210938.085937-.433594.128906-.660156.128906h-1.613282c-.320312 0-.636718-.085938-.910156-.25l-.9375-.5625 1.472656-.460938c1.621094-.507812 2.660156-2.082031 2.496094-3.773437-.066406-.648437-.3125-1.265625-.707031-1.785156l.460937-.460938.386719.390625c.195313.191406.511719.191406.707031 0l.070313-.070312c.355469 1.007812.332031 2.109375-.058594 3.105468zm1.890625-7.925781.785156.785157-3.042968 3.042968-.785157-.785156zm-9.851562 3.101563c.6875-.828125 1.707031-1.308594 2.785156-1.308594h.660156c.242188 0 .484375.019531.726562.058594l.410157.070312c.5.085938.984375.253906 1.429687.503906l-.261718.265626c-.195313.195312-.195313.511718 0 .703124l.394531.398438-.460938.460938c-1.5625-1.191407-3.796875-.886719-4.988281.675781-.253906.332031-.445312.707031-.570312 1.105469l-.417969 1.347656-.160157-.320313c-.148437-.292969-.253906-.609375-.316406-.933593-.21875-1.074219.066406-2.191407.769532-3.03125zm0 0"/></g></svg>

<?xml version="1.0" encoding="UTF-8"?>
<svg xmlns="http://www.w3.org/2000/svg" xmlns:xlink="http://www.w3.org/1999/xlink" width="32pt" height="32pt" viewBox="0 0 32 32" version="1.1">
<g id="surface1">
<path style=" stroke:none;fill-rule:nonzero;fill:rgb(255%,255%,255%);fill-opacity:1;" d="M 2 30.5 L 30 30.5 C 30.277344 30.5 30.5 30.277344 30.5 30 L 30.5 16 C 30.5 15.722656 30.277344 15.5 30 15.5 L 16.5 15.5 L 16.5 2 C 16.5 1.722656 16.277344 1.5 16 1.5 L 2 1.5 C 1.722656 1.5 1.5 1.722656 1.5 2 L 1.5 30 C 1.5 30.277344 1.722656 30.5 2 30.5 Z M 15.5 21.472656 C 12.859375 21.230469 10.769531 19.140625 10.527344 16.5 L 15.5 16.5 Z M 15.5 22.480469 L 15.5 23.984375 C 11.476562 23.726562 8.273438 20.523438 8.015625 16.5 L 9.519531 16.5 C 9.769531 19.695312 12.304688 22.230469 15.5 22.480469 Z M 16.5 16.5 L 21.472656 16.5 C 21.230469 19.140625 19.140625 21.230469 16.5 21.472656 Z M 10.527344 15.5 C 10.769531 12.859375 12.859375 10.769531 15.5 10.527344 L 15.5 15.5 Z M 15.5 9.519531 C 12.304688 9.769531 9.769531 12.304688 9.519531 15.5 L 8.015625 15.5 C 8.273438 11.476562 11.476562 8.273438 15.5 8.015625 Z M 7.027344 16.5 C 7.285156 21.070312 10.929688 24.714844 15.5 24.972656 L 15.5 29.5 L 9.472656 29.5 C 9.21875 25.757812 6.242188 22.78125 2.5 22.527344 L 2.5 16.5 Z M 2.5 25.53125 C 4.585938 25.765625 6.234375 27.414062 6.46875 29.5 L 2.5 29.5 Z M 7.476562 29.5 C 7.234375 26.859375 5.140625 24.765625 2.5 24.523438 L 2.5 23.519531 C 5.695312 23.769531 8.230469 26.304688 8.480469 29.5 Z M 23.519531 29.5 C 23.769531 26.304688 26.304688 23.769531 29.5 23.519531 L 29.5 24.523438 C 26.859375 24.765625 24.765625 26.859375 24.523438 29.5 Z M 25.53125 29.5 C 25.765625 27.414062 27.414062 25.765625 29.5 25.53125 L 29.5 29.5 Z M 29.5 22.527344 C 25.757812 22.78125 22.78125 25.757812 22.527344 29.5 L 16.5 29.5 L 16.5 24.972656 C 21.070312 24.714844 24.714844 21.070312 24.972656 16.5 L 29.5 16.5 Z M 23.984375 16.5 C 23.726562 20.523438 20.523438 23.726562 16.5 23.984375 L 16.5 22.480469 C 19.695312 22.230469 22.230469 19.695312 22.480469 16.5 Z M 15.5 7.027344 C 10.929688 7.285156 7.285156 10.929688 7.027344 15.5 L 2.5 15.5 L 2.5 9.472656 C 6.242188 9.21875 9.21875 6.242188 9.472656 2.5 L 15.5 2.5 Z M 8.480469 2.5 C 8.230469 5.695312 5.695312 8.230469 2.5 8.480469 L 2.5 7.476562 C 5.140625 7.234375 7.234375 5.140625 7.476562 2.5 Z M 6.46875 2.5 C 6.234375 4.585938 4.585938 6.234375 2.5 6.46875 L 2.5 2.5 Z M 6.46875 2.5 "/>
<path style=" stroke:none;fill-rule:nonzero;fill:rgb(255%,255%,255%);fill-opacity:1;" d="M 17.800781 9.71875 L 18.253906 10.625 C 18.308594 10.734375 18.367188 10.839844 18.429688 10.945312 L 17.523438 13.851562 C 17.441406 14.113281 17.585938 14.394531 17.851562 14.476562 C 17.898438 14.492188 17.949219 14.5 18 14.5 C 18.050781 14.5 18.101562 14.492188 18.148438 14.476562 L 21.003906 13.585938 L 22.703125 14.605469 C 23.136719 14.863281 23.628906 15 24.128906 15 L 25.742188 15 C 27.273438 15 28.515625 13.757812 28.515625 12.226562 C 28.515625 11.875 28.449219 11.523438 28.316406 11.195312 L 28.039062 10.5 C 28.578125 9.128906 28.542969 7.597656 27.9375 6.253906 L 30.847656 3.347656 C 31.042969 3.152344 31.042969 2.835938 30.847656 2.640625 L 29.351562 1.148438 C 29.160156 0.953125 28.839844 0.953125 28.648438 1.148438 L 25.882812 3.910156 C 25.277344 3.523438 24.601562 3.261719 23.894531 3.140625 L 23.484375 3.074219 C 23.191406 3.023438 22.890625 3 22.59375 3 L 21.933594 3 C 19.367188 3.011719 17.296875 5.101562 17.3125 7.667969 C 17.316406 8.378906 17.480469 9.082031 17.800781 9.71875 Z M 20.230469 8.542969 C 20.570312 7.46875 21.566406 6.738281 22.691406 6.734375 C 22.773438 6.734375 22.859375 6.738281 22.945312 6.746094 C 23.367188 6.789062 23.769531 6.9375 24.117188 7.175781 L 23.148438 8.148438 L 23.851562 8.851562 L 24.824219 7.882812 C 25.0625 8.230469 25.210938 8.632812 25.253906 9.054688 C 25.371094 10.269531 24.621094 11.402344 23.457031 11.769531 L 18.761719 13.238281 Z M 27.109375 10.132812 L 27.035156 10.316406 C 26.988281 10.433594 26.988281 10.566406 27.035156 10.6875 L 27.386719 11.566406 C 27.753906 12.476562 27.3125 13.507812 26.402344 13.871094 C 26.191406 13.957031 25.96875 14 25.742188 14 L 24.128906 14 C 23.808594 14 23.492188 13.914062 23.21875 13.75 L 22.28125 13.1875 L 23.753906 12.726562 C 25.375 12.21875 26.414062 10.644531 26.25 8.953125 C 26.183594 8.304688 25.9375 7.6875 25.542969 7.167969 L 26.003906 6.707031 L 26.390625 7.097656 C 26.585938 7.289062 26.902344 7.289062 27.097656 7.097656 L 27.167969 7.027344 C 27.523438 8.035156 27.5 9.136719 27.109375 10.132812 Z M 29 2.207031 L 29.785156 2.992188 L 26.742188 6.035156 L 25.957031 5.25 Z M 19.148438 5.308594 C 19.835938 4.480469 20.855469 4 21.933594 4 L 22.59375 4 C 22.835938 4 23.078125 4.019531 23.320312 4.058594 L 23.730469 4.128906 C 24.230469 4.214844 24.714844 4.382812 25.160156 4.632812 L 24.898438 4.898438 C 24.703125 5.09375 24.703125 5.410156 24.898438 5.601562 L 25.292969 6 L 24.832031 6.460938 C 23.269531 5.269531 21.035156 5.574219 19.84375 7.136719 C 19.589844 7.46875 19.398438 7.84375 19.273438 8.242188 L 18.855469 9.589844 L 18.695312 9.269531 C 18.546875 8.976562 18.441406 8.660156 18.378906 8.335938 C 18.160156 7.261719 18.445312 6.144531 19.148438 5.304688 Z M 19.148438 5.308594 "/>
</g>
</svg>
